!!!OTL: SAGT MIR AN WAS SCHMUNZELT IHR
!!!ARE: Europa, Mitteleuropa, Deutschland
!!!SCT: B0612
!!!YEM: Copyright 1995, estate of Helmut Schaffrath.
**kern
*ICvox
*Ivox
*M4/4
*k[f#c#]
*D:
=1
{4dd
4dd
4cc#
4cc#
=2
4b
4b
2a}
=3
{4b
4a
4b
4a
=4
4g
4f#
2e}
=5
{4g
4g
4e
4e
=6
4f#
4f#
4e
4e}
=7
{4f#
4f#
4e
4e
=8
4f#
4f#
4e
4e}
=9
{4f#
4e
4f#
4g
=10
2a
4dd
4r}
=11
{8g
8f#
8e
8d
4a
4a
=12
2d
2r}
==
!!!AGN: Staende -, Bauern - Lied, Tanz
!!!ONB: ESAC (Essen Associative Code) Database: BOEHME
!!!AMT: simple quadruple
!!!AIN: vox
!!!EED: Helmut Schaffrath
!!!EEV: 1.0
*-
